7-animation/1-bezier-curve/bezier-letter.svg

<?xml version="1.0" encoding="UTF-8"?>
<svg width="166px" height="173px" viewBox="0 0 166 173" version="1.1" xmlns="http://www.w3.org/2000/svg" xmlns:xlink="http://www.w3.org/1999/xlink">
    <!-- Generator: sketchtool 61.2 (101010) - https://sketch.com -->
    <title>bezier-letter.svg</title>
    <desc>Created with sketchtool.</desc>
    <g id="animation" stroke="none" stroke-width="1" fill="none" fill-rule="evenodd">
        <g id="bezier-letter.svg">
            <g id="blue-zones" transform="translate(13.000000, 3.000000)">
                <g id="g10" transform="translate(74.667210, 82.907153) scale(1, -1) translate(-74.667210, -82.907153) translate(0.167210, 0.907153)">
                    <g id="g12" transform="translate(0.082789, 0.014893)">
                        <g id="g14" transform="translate(0.000000, 0.000000)">
                            <g id="g24" transform="translate(0.000000, 0.778344)">
                                <path d="M94.1950078,31.5813173 C95.4706172,17.7726644 104.08103,3.27358276 119.069517,3.27358276 C125.766502,3.27358276 145.219636,8.10661506 145.219636,36.0691123 L145.219636,55.4012263 L137.247042,55.4012263 L137.247042,36.0691123 C137.247042,16.0465847 129.274434,13.975283 125.766502,13.975283 C115.242661,13.975283 113.967052,29.5100156 113.967052,31.2360953 L113.967052,100.279314 C113.967052,114.778396 113.967052,128.241826 102.486511,141.014828 C90.0492562,154.478259 74.1040547,160.001705 58.7966719,160.001705 C32.6465531,160.001705 10.6421719,143.776559 10.6421719,120.992285 C10.6421719,110.635807 17.0202609,104.767124 25.31175,104.767124 C34.2410719,104.767124 39.9813422,111.671458 39.9813422,120.647079 C39.9813422,124.789667 38.3868234,136.181796 23.7172453,136.527018 C32.3276438,148.609576 47.9539359,152.406957 58.1588672,152.406957 C73.7851594,152.406957 91.9626844,138.943527 91.9626844,108.219283 L91.9626844,95.4462967 C75.6985734,94.4106459 53.3752969,93.374995 33.2843578,83.0185168 C9.3665625,71.2811657 1.39396875,53.3299246 1.39396875,38.1404141 C1.39396875,10.1779168 32.3276437,1.54750305 52.4185969,1.54750305 C73.46625,1.54750305 88.1358281,15.3561407 94.1950078,31.5813173 L94.1950078,31.5813173 Z" id="path30" fill="#B3B3B3"></path>
                                <path d="M91.9626844,88.1967559 L91.9626844,53.6751466 C91.9626844,20.879617 69.0016031,9.14226592 54.6509203,9.14226592 C39.0246281,9.14226592 25.9495688,21.2248238 25.9495688,38.4856361 C25.9495688,57.4725281 39.3435375,86.1254542 91.9626844,88.1967559 L91.9626844,88.1967559 Z" id="path32" fill="#FFFFFF"></path>
                                <polygon id="path34" fill="#000000" points="93.0700078 30.3634803 95.3200078 30.3634803 95.3200078 32.7991391 93.0700078 32.7991391"></polygon>
                                <polygon id="path36" fill="#000000" points="117.944503 2.05576097 120.194517 2.05576097 120.194517 4.49141976 117.944503 4.49141976"></polygon>
                                <polygon id="path38" fill="#000000" points="144.094636 34.8512906 146.344636 34.8512906 146.344636 37.2869493 144.094636 37.2869493"></polygon>
                                <polygon id="path40" fill="#000000" points="144.094636 54.1833893 146.344636 54.1833893 146.344636 56.6190481 144.094636 56.6190481"></polygon>
                                <polygon id="path42" fill="#000000" points="136.122028 54.1833893 138.372042 54.1833893 138.372042 56.6190481 136.122028 56.6190481"></polygon>
                                <polygon id="path44" fill="#000000" points="136.122028 34.8512906 138.372042 34.8512906 138.372042 37.2869493 136.122028 37.2869493"></polygon>
                                <polygon id="path46" fill="#000000" points="124.641487 12.7574612 126.891502 12.7574612 126.891502 15.1931048 124.641487 15.1931048 124.641487 12.7574612"></polygon>
                                <polygon id="path48" fill="#000000" points="112.842052 30.0182583 115.092052 30.0182583 115.092052 32.453917 112.842052 32.453917"></polygon>
                                <polygon id="path50" fill="#000000" points="112.842052 99.061492 115.092052 99.061492 115.092052 101.497151 112.842052 101.497151"></polygon>
                                <polygon id="path52" fill="#000000" points="101.361511 139.796991 103.611511 139.796991 103.611511 142.23265 101.361511 142.23265"></polygon>
                                <polygon id="path54" fill="#000000" points="57.6716719 158.783883 59.9216719 158.783883 59.9216719 161.219527 57.6716719 161.219527"></polygon>
                                <polygon id="path56" fill="#000000" points="9.51717187 119.774464 11.7671859 119.774464 11.7671859 122.210107 9.51717187 122.210107"></polygon>
                                <polygon id="path58" fill="#000000" points="24.18675 103.549302 26.4367641 103.549302 26.4367641 105.984961 24.18675 105.984961"></polygon>
                                <polygon id="path60" fill="#000000" points="38.8563281 119.429242 41.1063422 119.429242 41.1063422 121.8649 38.8563281 121.8649"></polygon>
                                <polygon id="path62" fill="#000000" points="22.5922313 135.309181 24.8422453 135.309181 24.8422453 137.74484 22.5922313 137.74484"></polygon>
                                <polygon id="path64" fill="#000000" points="57.0338531 151.189136 59.2838672 151.189136 59.2838672 153.624779 57.0338531 153.624779"></polygon>
                                <polygon id="path66" fill="#000000" points="90.8376703 107.001462 93.0876844 107.001462 93.0876844 109.437121 90.8376703 109.437121"></polygon>
                                <polygon id="path68" fill="#000000" points="90.8376703 94.228475 93.0876844 94.228475 93.0876844 96.6641185 90.8376703 96.6641185"></polygon>
                                <polygon id="path70" fill="#000000" points="32.1593438 81.8006798 34.4093578 81.8006798 34.4093578 84.2363386 32.1593438 84.2363386 32.1593438 81.8006798"></polygon>
                                <polygon id="path72" fill="#000000" points="0.26896875 36.9225923 2.51896875 36.9225923 2.51896875 39.3582358 0.26896875 39.3582358"></polygon>
                                <polygon id="path74" fill="#000000" points="51.2935828 0.329681271 53.5435969 0.329681271 53.5435969 2.76534006 51.2935828 2.76534006"></polygon>
                                <polygon id="path76" fill="#000000" points="93.0700078 30.3634803 95.3200078 30.3634803 95.3200078 32.7991391 93.0700078 32.7991391"></polygon>
                                <polygon id="path78" fill="#000000" points="90.8376703 86.9789341 93.0876844 86.9789341 93.0876844 89.4145777 90.8376703 89.4145777"></polygon>
                                <polygon id="path80" fill="#000000" points="90.8376703 52.4573096 93.0876844 52.4573096 93.0876844 54.8929684 90.8376703 54.8929684 90.8376703 52.4573096"></polygon>
                                <polygon id="path82" fill="#000000" points="53.5259062 7.92442892 55.7759203 7.92442892 55.7759203 10.3600877 53.5259062 10.3600877"></polygon>
                                <polygon id="path84" fill="#000000" points="24.8245688 37.2677991 27.0745688 37.2677991 27.0745688 39.7034579 24.8245688 39.7034579"></polygon>
                                <polygon id="path86" fill="#000000" points="90.8376703 86.9789341 93.0876844 86.9789341 93.0876844 89.4145777 90.8376703 89.4145777"></polygon>
                            </g>
                        </g>
                    </g>
                </g>
            </g>
        </g>
    </g>
</svg>

<svg xmlns="http://www.w3.org/2000/svg" width="166" height="173" viewBox="0 0 166 173"><defs><style>@import url(https://fonts.googleapis.com/css?family=Open+Sans:bold,italic,bolditalic%7CPT+Mono);@font-face{font-family:&apos;PT Mono&apos;;font-weight:700;font-style:normal;src:local(&apos;PT MonoBold&apos;),url(/font/PTMonoBold.woff2) format(&apos;woff2&apos;),url(/font/PTMonoBold.woff) format(&apos;woff&apos;),url(/font/PTMonoBold.ttf) format(&apos;truetype&apos;)}</style></defs><g id="animation" fill="none" fill-rule="evenodd" stroke="none" stroke-width="1"><g id="bezier-letter.svg"><g id="blue-zones" transform="translate(13 3)"><g id="g10" transform="matrix(1 0 0 -1 .167 164.907)"><g id="g12" transform="translate(.083 .015)"><g id="g14"><g id="g24" transform="translate(0 .778)"><path id="path30" fill="#B3B3B3" d="M94.195 31.581c1.276-13.808 9.886-28.307 24.875-28.307 6.697 0 26.15 4.833 26.15 32.795v19.332h-7.973V36.07c0-20.022-7.973-22.094-11.48-22.094-10.524 0-11.8 15.535-11.8 17.261v69.043c0 14.5 0 27.963-11.48 40.736-12.438 13.463-28.383 18.987-43.69 18.987-26.15 0-48.155-16.225-48.155-39.01 0-10.356 6.378-16.225 14.67-16.225 8.93 0 14.67 6.904 14.67 15.88 0 4.143-1.595 15.535-16.265 15.88 8.61 12.083 24.237 15.88 34.442 15.88 15.626 0 33.804-13.463 33.804-44.188V95.446c-16.264-1.035-38.588-2.071-58.679-12.427C9.367 71.28 1.394 53.329 1.394 38.14c0-27.962 30.934-36.592 51.025-36.592 21.047 0 35.717 13.808 41.776 30.033z"/><path id="path32" fill="#FFF" d="M91.963 88.197V53.675c0-32.795-22.961-44.533-37.312-44.533-15.626 0-28.701 12.083-28.701 29.344 0 18.987 13.394 47.64 66.013 49.71z"/><path id="path34" fill="#000" d="M93.07 30.363h2.25V32.8h-2.25z"/><path id="path36" fill="#000" d="M117.945 2.056h2.25V4.49h-2.25z"/><path id="path38" fill="#000" d="M144.095 34.851h2.25v2.436h-2.25z"/><path id="path40" fill="#000" d="M144.095 54.183h2.25v2.436h-2.25z"/><path id="path42" fill="#000" d="M136.122 54.183h2.25v2.436h-2.25z"/><path id="path44" fill="#000" d="M136.122 34.851h2.25v2.436h-2.25z"/><path id="path46" fill="#000" d="M124.641 12.757h2.25v2.436h-2.25v-2.436z"/><path id="path48" fill="#000" d="M112.842 30.018h2.25v2.436h-2.25z"/><path id="path50" fill="#000" d="M112.842 99.061h2.25v2.436h-2.25z"/><path id="path52" fill="#000" d="M101.362 139.797h2.25v2.436h-2.25z"/><path id="path54" fill="#000" d="M57.672 158.784h2.25v2.436h-2.25z"/><path id="path56" fill="#000" d="M9.517 119.774h2.25v2.436h-2.25z"/><path id="path58" fill="#000" d="M24.187 103.55h2.25v2.435h-2.25z"/><path id="path60" fill="#000" d="M38.856 119.43h2.25v2.435h-2.25z"/><path id="path62" fill="#000" d="M22.592 135.31h2.25v2.435h-2.25z"/><path id="path64" fill="#000" d="M57.034 151.19h2.25v2.435h-2.25z"/><path id="path66" fill="#000" d="M90.838 107.001h2.25v2.436h-2.25z"/><path id="path68" fill="#000" d="M90.838 94.228h2.25v2.436h-2.25z"/><path id="path70" fill="#000" d="M32.16 81.8h2.25v2.436h-2.25v-2.435z"/><path id="path72" fill="#000" d="M.269 36.923h2.25v2.435H.269z"/><path id="path74" fill="#000" d="M51.294.33h2.25v2.435h-2.25z"/><path id="path76" fill="#000" d="M93.07 30.363h2.25V32.8h-2.25z"/><path id="path78" fill="#000" d="M90.838 86.979h2.25v2.436h-2.25z"/><path id="path80" fill="#000" d="M90.838 52.457h2.25v2.436h-2.25v-2.436z"/><path id="path82" fill="#000" d="M53.526 7.924h2.25v2.436h-2.25z"/><path id="path84" fill="#000" d="M24.825 37.268h2.25v2.435h-2.25z"/><path id="path86" fill="#000" d="M90.838 86.979h2.25v2.436h-2.25z"/></g></g></g></g></g></g></g></svg>
